X:1591
T:Donna Lombarda
O:england
S:La Piva del carner
M:3/4
L:1/4
K:G
BBA|G2D/G/|BBA|G2D|\
GAB|c2B|~d~c(3B/c/d/|d~cB|\
A>B(3c/d/e/|=f~ed|c~BA|B2D|\
d/D/e/D/d/D/|A2B|~cBA|G3||
BBA|G2G|BBA|G2G|\
GAB|c2B|BAG|A3|\
AAB|c2c|cBA|B2B|\
BAG|A2B|cBA|G3||
BAD|G2G|BAD|G2G|\
GAB|c2B|BGG|A3|\
AAB|c2c|cBA|B2B|\
BAG|A2B|cBA|G3||
